assets/images/icons/documentation/icn-quickstart.svg

<svg xmlns="http://www.w3.org/2000/svg" preserveAspectRatio="xMidYMid" width="26" height="32" viewBox="0 0 26 32"><defs><style>.cls-2{fill:#9daab3}</style></defs><path d="M26 19c0 7.18-5.82 13-13 13S0 26.18 0 19C0 12.855 4.269 7.718 10 6.362V6L8 4V1l.937-1h8.03L18 1v3l-2 2v.362C21.731 7.718 26 12.855 26 19zM16 2h-6v2h1l1 1v1.05c.331-.025.662-.05 1-.05.338 0 .669.025 1 .05V5l1-1h1V2zm-3 6C6.925 8 2 12.925 2 19s4.925 11 11 11 11-4.925 11-11S19.075 8 13 8zm0 12l-1-1 6-6 1 1v1l-5 5h-1z" id="path-1" class="cls-2" fill-rule="evenodd"/></svg>

<svg xmlns="http://www.w3.org/2000/svg" xmlns:xlink="http://www.w3.org/1999/xlink" preserveAspectRatio="xMidYMid" width="26" height="32" viewBox="0 0 26 32">
  <defs>
    <style>

      .cls-2 {
        fill: #9daab3;
      }
    </style>
  </defs>
  <path d="M26.000,19.000 C26.000,26.180 20.180,32.000 13.000,32.000 C5.820,32.000 0.000,26.180 0.000,19.000 C0.000,12.855 4.269,7.718 10.000,6.362 C10.000,6.362 10.000,6.000 10.000,6.000 C10.000,6.000 8.000,4.000 8.000,4.000 C8.000,4.000 8.000,1.000 8.000,1.000 C8.000,1.000 8.937,0.000 8.937,0.000 C8.937,0.000 16.967,0.000 16.967,0.000 C16.967,0.000 18.000,1.000 18.000,1.000 C18.000,1.000 18.000,4.000 18.000,4.000 C18.000,4.000 16.000,6.000 16.000,6.000 C16.000,6.000 16.000,6.362 16.000,6.362 C21.731,7.718 26.000,12.855 26.000,19.000 ZM16.000,2.000 C16.000,2.000 10.000,2.000 10.000,2.000 C10.000,2.000 10.000,4.000 10.000,4.000 C10.000,4.000 11.000,4.000 11.000,4.000 C11.000,4.000 12.000,5.000 12.000,5.000 C12.000,5.000 12.000,6.050 12.000,6.050 C12.331,6.025 12.662,6.000 13.000,6.000 C13.338,6.000 13.669,6.025 14.000,6.050 C14.000,6.050 14.000,5.000 14.000,5.000 C14.000,5.000 15.000,4.000 15.000,4.000 C15.000,4.000 16.000,4.000 16.000,4.000 C16.000,4.000 16.000,2.000 16.000,2.000 ZM13.000,8.000 C6.925,8.000 2.000,12.925 2.000,19.000 C2.000,25.075 6.925,30.000 13.000,30.000 C19.075,30.000 24.000,25.075 24.000,19.000 C24.000,12.925 19.075,8.000 13.000,8.000 ZM13.000,20.000 C13.000,20.000 12.000,19.000 12.000,19.000 C12.000,19.000 18.000,13.000 18.000,13.000 C18.000,13.000 19.000,14.000 19.000,14.000 C19.000,14.000 19.000,15.000 19.000,15.000 C19.000,15.000 14.000,20.000 14.000,20.000 C14.000,20.000 13.000,20.000 13.000,20.000 Z" id="path-1" class="cls-2" fill-rule="evenodd"/>
</svg>
